sites/cat-energy/img/icon/sprite.svg

<svg xmlns="http://www.w3.org/2000/svg"><style>:root svg:not(:target){display:none}</style><svg viewBox="0 0 24 18" id="triangles"><path d="M8 0 0 9l8 9V0Zm16 9-8-9v18l8-9Z"/></svg><svg viewBox="0 0 29 22" id="vkontakte"><g clip-path="url(#a)"><path d="M1.5 5.34c0-.86.52-1.32 1.55-1.38l3.97.02c.26 0 .44.13.53.38.4 1.26.86 2.34 1.37 3.25.5.92 1.17 1.97 1.99 3.16.07.15.18.23.34.23.13 0 .22-.06.3-.18l.07-.28.03-4.35c0-.3-.07-.5-.23-.6-.15-.1-.43-.18-.83-.23-.32-.05-.48-.23-.48-.55 0-.07 0-.12.02-.15.38-1.09 1.44-1.63 3.2-1.63l1.5-.03c.67 0 1.23.16 1.67.48.44.32.67.82.67 1.5v5.72c.12.08.24.12.34.12.27 0 .5-.15.7-.45 1.95-2.58 3-4.31 3.17-5.18 0-.02.01-.06.05-.13.12-.25.33-.47.61-.65.29-.19.53-.31.75-.38a.55.55 0 0 1 .24-.05h4.13l.26.03c.36 0 .63.16.83.47.07.1.12.21.15.33a2.4 2.4 0 0 1 .06.55v.18a6.11 6.11 0 0 1-.94 2.2c-.5.78-1.15 1.62-1.93 2.53-.79.9-1.27 1.5-1.47 1.78-.16.2-.24.39-.24.56 0 .13.07.28.21.45l3.9 4.63c.2.26.31.56.31.88 0 .38-.16.7-.48.95-.32.25-.7.4-1.14.43l-.46.02h-4.04c-.02 0-.06 0-.11.02a.86.86 0 0 1-.1.01c-.4 0-.76-.16-1.1-.48-.12-.13-.96-1.12-2.5-2.97a1.39 1.39 0 0 0-.38-.32 38.47 38.47 0 0 0-.53 2.24l-.08.42a1.4 1.4 0 0 1-1.12 1.06l-.37.02h-2.61c-1.48 0-2.95-.63-4.41-1.9a19.3 19.3 0 0 1-3.96-4.95 47.51 47.51 0 0 1-3.28-7.05 1.92 1.92 0 0 1-.13-.73Zm16.01 6.51c-.37 0-.7-.1-1.01-.29a.9.9 0 0 1-.45-.79V5c0-.34-.1-.58-.27-.72-.18-.14-.49-.21-.93-.21l-1.52.05c-.76 0-1.34.12-1.73.37.78.36 1.17.93 1.17 1.71v4.43a1.5 1.5 0 0 1-.53 1.04c-.32.28-.68.42-1.07.42-.53 0-.94-.24-1.22-.73a26.16 26.16 0 0 1-3.1-5.63l-.23-.66-3.55-.02c-.23 0-.36.01-.38.03-.03.03-.04.1-.04.22 0 .15.01.3.05.48l.56 1.4c1.49 3.64 3.11 6.51 4.86 8.6 1.75 2.1 3.47 3.15 5.16 3.15h2.66c.1 0 .19-.03.24-.09.05-.06.1-.17.13-.34l.06-.25.5-2.21c.15-.3.27-.5.38-.6.2-.2.42-.28.69-.28.43 0 .86.24 1.3.73l2.27 2.71c.14.22.3.33.45.33h4.4c.53 0 .8-.13.8-.38a.47.47 0 0 0-.08-.25l-3.87-4.55c-.3-.35-.45-.73-.45-1.13 0-.4.14-.8.43-1.16.23-.34.68-.9 1.34-1.67.67-.78 1.25-1.51 1.75-2.19.5-.68.82-1.3.98-1.85l.08-.33a.37.37 0 0 1-.02-.16c0-.07-.01-.14-.03-.19h-4.18c-.27.1-.48.25-.64.45L22.3 6c-.45 1.16-1.6 2.94-3.5 5.36-.36.33-.8.5-1.3.5Z"/></g></svg><svg viewBox="0 0 29 22" id="youtube"><path d="m18.35 10.8-5.24-3.5a.65.65 0 0 0-1.01.55v6.98a.65.65 0 0 0 1.01.54l5.24-3.49a.65.65 0 0 0 0-1.09Zm-4.94 2.8V9.08l3.4 2.27-3.4 2.27Zm12.48-8.56a2.4 2.4 0 0 0-1.45-1.63C20.72 1.98 14.75 2 14.5 2s-6.22-.02-9.94 1.4a2.4 2.4 0 0 0-1.45 1.64 25.32 25.32 0 0 0-.61 6.3c0 3.26.33 5.22.61 6.3a2.4 2.4 0 0 0 1.45 1.63c3.72 1.43 9.69 1.4 9.94 1.4h.08c.75 0 6.31-.04 9.86-1.4a2.4 2.4 0 0 0 1.45-1.64c.28-1.07.61-3.03.61-6.3 0-3.25-.33-5.22-.61-6.29Zm-1.27 12.27a1.1 1.1 0 0 1-.65.74c-3.5 1.34-9.4 1.32-9.47 1.32-.07 0-5.98.02-9.47-1.32a1.09 1.09 0 0 1-.65-.74c-.27-1-.57-2.85-.57-5.97 0-3.12.3-4.97.57-5.97a1.1 1.1 0 0 1 .65-.74c3.5-1.34 9.4-1.32 9.47-1.32.07 0 5.98-.02 9.47 1.32a1.1 1.1 0 0 1 .65.74c.27 1 .57 2.85.57 5.97 0 3.12-.3 4.96-.57 5.97Z"/></svg><svg viewBox="0 0 29 22" id="telegram"><path fill-rule="evenodd" d="M23.96 3.15c.18.15.27.38.23.61l-2.63 15.76a.66.66 0 0 1-1.01.44l-7.88-5.25a.66.66 0 0 1-.15-.96l2.61-3.26-4.36 2.9a.66.66 0 0 1-.65.05L4.86 10.8a.66.66 0 0 1 .08-1.2l18.38-6.57a.66.66 0 0 1 .64.11ZM6.83 10.32l3.53 1.77 7.56-5.04a.66.66 0 0 1 .88.96L14 14l6.43 4.3 2.28-13.66-15.88 5.67Z" clip-rule="evenodd"/></svg><svg viewBox="0 0 27 34" id="html-academy"><g clip-path="url(#a)"><path d="M13.64.02 13.5 0 0 1.4v24.61L13.5 34 27 26.01V1.41L13.64 0Zm11.6 25L13.5 31.96 1.77 25.02v-10.1l11.68 6.93.02 1.25-8.02-4.75v1.23l8.04 4.8.02 1.3-8.05-4.76v1.22l8.04 4.81 8.12-4.83V16.9l3.62-2.15v10.26Zm0-11.57L22 15.33l-1.48.88-7.06-4.19-.01 1.23 6.04 3.57-.06.03-.13.07-.86.5-4.98-2.95-.01 1.22 3.93 2.33-.93.61-.02.01-2.97-1.74-.01 1.23 1.94 1.13-1.98 1.19L1.8 13.58l11.63-6.96 11.8 6.83Zm0-1.22L13.43 5.3 1.77 12.22V2.99L13.5 1.76 25.23 3v9.24Z"/></g></svg><svg viewBox="0 0 20 20" id="email" fill="none"><path d="M1.5 8.5v8h17v-8m-17-5h17v2l-8.5 6-8.5-6v-2Z" stroke="#000" stroke-linecap="round" stroke-linejoin="round"/></svg><svg viewBox="0 0 20 20" id="phone" fill="none"><path d="M10 10h8.5m0 0L16 7.5m2.5 2.5L16 12.5m-7.5-10v5h-3v5h3v5H6c-1.5 0-2.5-1-2.5-2.5V5c0-1.5 1-2.5 2.5-2.5h2.5Z" stroke="#000" stroke-linecap="round" stroke-linejoin="round"/></svg><svg viewBox="0 0 32 12" id="arrow-right" fill="none" preserveAspectRatio="none"><path stroke="#000" stroke-width="2" d="M0 6h26"/><path d="m32 6-6.75 5.196V.804L32 6Z" fill="#000"/></svg><svg viewBox="0 0 24 18" id="burger" fill="none"><path stroke="#000" stroke-width="1.5" d="M0 1.25h24M0 9.25h24M0 17.25h24"/></svg><svg viewBox="0 0 20 20" id="cross-close" fill="none"><path transform="scale(.97098 1.0282) rotate(-45 24.51 7.237)" stroke="#000" stroke-width="1.5" d="M0-.75h24.758"/><path transform="matrix(.68659 .72705 -.68659 .72705 1 2)" stroke="#000" stroke-width="1.5" d="M0-.75h24.758"/></svg></svg>

<svg xmlns="http://www.w3.org/2000/svg">
  <style>:root svg:not(:target) {display:none}</style>
  <svg viewBox="0 0 24 18" id="triangles">
    <path d="M8 0 0 9l8 9V0ZM24 9l-8-9v18l8-9Z"/>
  </svg>
  <svg viewBox="0 0 29 22" id="vkontakte">
    <g clip-path="url(#a)">
      <path d="M1.5 5.34c0-.86.52-1.32 1.55-1.38l3.97.02c.26 0 .44.13.53.38.4 1.26.86 2.34 1.37 3.25.5.92 1.17 1.97 1.99 3.16.07.15.18.23.34.23.13 0 .22-.06.3-.18l.07-.28.03-4.35c0-.3-.07-.5-.23-.6-.15-.1-.43-.18-.83-.23-.32-.05-.48-.23-.48-.55 0-.07 0-.12.02-.15.38-1.09 1.44-1.63 3.2-1.63l1.5-.03c.67 0 1.23.16 1.67.48.44.32.67.82.67 1.5v5.72c.12.08.24.12.34.12.27 0 .5-.15.7-.45 1.95-2.58 3-4.31 3.17-5.18 0-.02.01-.06.05-.13.12-.25.33-.47.61-.65.29-.19.53-.31.75-.38a.55.55 0 0 1 .24-.05h4.13l.26.03c.36 0 .63.16.83.47.07.1.12.21.15.33a2.4 2.4 0 0 1 .06.55v.18a6.11 6.11 0 0 1-.94 2.2c-.5.78-1.15 1.62-1.93 2.53-.79.9-1.27 1.5-1.47 1.78-.16.2-.24.39-.24.56 0 .13.07.28.21.45l3.9 4.63c.2.26.31.56.31.88 0 .38-.16.7-.48.95-.32.25-.7.4-1.14.43l-.46.02h-4.04c-.02 0-.06 0-.11.02a.86.86 0 0 1-.1.01c-.4 0-.76-.16-1.1-.48-.12-.13-.96-1.12-2.5-2.97a1.39 1.39 0 0 0-.38-.32 38.47 38.47 0 0 0-.53 2.24l-.08.42a1.4 1.4 0 0 1-1.12 1.06l-.37.02h-2.61c-1.48 0-2.95-.63-4.41-1.9a19.3 19.3 0 0 1-3.96-4.95 47.51 47.51 0 0 1-3.28-7.05 1.92 1.92 0 0 1-.13-.73Zm16.01 6.51c-.37 0-.7-.1-1.01-.29a.9.9 0 0 1-.45-.79V5c0-.34-.1-.58-.27-.72-.18-.14-.49-.21-.93-.21l-1.52.05c-.76 0-1.34.12-1.73.37.78.36 1.17.93 1.17 1.71v4.43a1.5 1.5 0 0 1-.53 1.04c-.32.28-.68.42-1.07.42-.53 0-.94-.24-1.22-.73a26.16 26.16 0 0 1-3.1-5.63l-.23-.66-3.55-.02c-.23 0-.36.01-.38.03-.03.03-.04.1-.04.22 0 .15.01.3.05.48l.56 1.4c1.49 3.64 3.11 6.51 4.86 8.6 1.75 2.1 3.47 3.15 5.16 3.15h2.66c.1 0 .19-.03.24-.09.05-.06.1-.17.13-.34l.06-.25.5-2.21c.15-.3.27-.5.38-.6.2-.2.42-.28.69-.28.43 0 .86.24 1.3.73l2.27 2.71c.14.22.3.33.45.33h4.4c.53 0 .8-.13.8-.38a.47.47 0 0 0-.08-.25l-3.87-4.55c-.3-.35-.45-.73-.45-1.13 0-.4.14-.8.43-1.16.23-.34.68-.9 1.34-1.67.67-.78 1.25-1.51 1.75-2.19.5-.68.82-1.3.98-1.85l.08-.33a.37.37 0 0 1-.02-.16c0-.07-.01-.14-.03-.19h-4.18c-.27.1-.48.25-.64.45L22.3 6c-.45 1.16-1.6 2.94-3.5 5.36-.36.33-.8.5-1.3.5Z"/>
    </g>
    <defs><clipPath><path fill="#fff" d="M.5 0h28v22H.5z"/></clipPath></defs>
  </svg>
  <svg viewBox="0 0 29 22" id="youtube">
    <path d="m18.35 10.8-5.24-3.5a.65.65 0 0 0-1.01.55v6.98a.65.65 0 0 0 1.01.54l5.24-3.49a.65.65 0 0 0 0-1.09Zm-4.94 2.8V9.08l3.4 2.27-3.4 2.27Zm12.48-8.56a2.4 2.4 0 0 0-1.45-1.63C20.72 1.98 14.75 2 14.5 2s-6.22-.02-9.94 1.4a2.4 2.4 0 0 0-1.45 1.64 25.32 25.32 0 0 0-.61 6.3c0 3.26.33 5.22.61 6.3a2.4 2.4 0 0 0 1.45 1.63c3.72 1.43 9.69 1.4 9.94 1.4h.08c.75 0 6.31-.04 9.86-1.4a2.4 2.4 0 0 0 1.45-1.64c.28-1.07.61-3.03.61-6.3 0-3.25-.33-5.22-.61-6.29Zm-1.27 12.27a1.1 1.1 0 0 1-.65.74c-3.5 1.34-9.4 1.32-9.47 1.32-.07 0-5.98.02-9.47-1.32a1.09 1.09 0 0 1-.65-.74c-.27-1-.57-2.85-.57-5.97 0-3.12.3-4.97.57-5.97a1.1 1.1 0 0 1 .65-.74c3.5-1.34 9.4-1.32 9.47-1.32.07 0 5.98-.02 9.47 1.32a1.1 1.1 0 0 1 .65.74c.27 1 .57 2.85.57 5.97 0 3.12-.3 4.96-.57 5.97Z"/>
  </svg>
  <svg viewBox="0 0 29 22" id="telegram">
    <path fill-rule="evenodd" d="M23.96 3.15c.18.15.27.38.23.61l-2.63 15.76a.66.66 0 0 1-1.01.44l-7.88-5.25a.66.66 0 0 1-.15-.96l2.61-3.26-4.36 2.9a.66.66 0 0 1-.65.05L4.86 10.8a.66.66 0 0 1 .08-1.2l18.38-6.57a.66.66 0 0 1 .64.11ZM6.83 10.32l3.53 1.77 7.56-5.04a.66.66 0 0 1 .88.96L14 14l6.43 4.3 2.28-13.66-15.88 5.67Z" clip-rule="evenodd"/>
  </svg>
  <svg viewBox="0 0 27 34" id="html-academy">
    <g clip-path="url(#a)">
      <path d="M13.64.02 13.5 0 0 1.4v24.61L13.5 34 27 26.01V1.41L13.64 0Zm11.6 25L13.5 31.96 1.77 25.02v-10.1l11.68 6.93.02 1.25-8.02-4.75v1.23l8.04 4.8.02 1.3-8.05-4.76v1.22l8.04 4.81 8.12-4.83V16.9l3.62-2.15v10.26Zm0-11.57L22 15.33l-1.48.88-7.06-4.19-.01 1.23 6.04 3.57-.06.03-.13.07-.86.5-4.98-2.95-.01 1.22 3.93 2.33-.93.61-.02.01-2.97-1.74-.01 1.23 1.94 1.13-1.98 1.19L1.8 13.58l11.63-6.96 11.8 6.83Zm0-1.22L13.43 5.3 1.77 12.22V2.99L13.5 1.76 25.23 3v9.24Z"/>
    </g>
    <defs><clipPath><path fill="#fff" d="M0 0h27v34H0z"/></clipPath></defs>
  </svg>
  <svg viewBox="0 0 20 20" id="email" fill="none">
    <path d="M1.5 8.5V16.5H18.5V8.5M1.5 3.5H18.5V5.5L10 11.5L1.5 5.5V3.5Z" stroke="black" stroke-linecap="round" stroke-linejoin="round"/>
  </svg>
  <svg viewBox="0 0 20 20" id="phone" fill="none">
    <path d="M10 10H18.5M18.5 10L16 7.5M18.5 10L16 12.5M8.5 2.5V7.5H5.5V12.5H8.5V17.5H6C4.5 17.5 3.5 16.5 3.5 15V5C3.5 3.5 4.5 2.5 6 2.5H8.5Z" stroke="black" stroke-linecap="round" stroke-linejoin="round"/>
  </svg>
  <svg viewBox="0 0 32 12" id="arrow-right" fill="none" preserveAspectRatio="none">
    <line y1="6" x2="26" y2="6" stroke="black" stroke-width="2"/>
    <path d="M32 6L25.25 11.1962L25.25 0.803848L32 6Z" fill="black"/>
  </svg>
  <svg viewBox="0 0 24 18" id="burger" fill="none">
    <line y1="1.25" x2="24" y2="1.25" stroke="black" stroke-width="1.5"/>
    <line y1="9.25" x2="24" y2="9.25" stroke="black" stroke-width="1.5"/>
    <line y1="17.25" x2="24" y2="17.25" stroke="black" stroke-width="1.5"/>
  </svg>
  <svg viewBox="0 0 20 20" id="cross-close" fill="none">
    <line y1="-0.75" x2="24.7577" y2="-0.75" transform="matrix(0.686589 -0.727046 0.686589 0.727046 2.00171 20)" stroke="black" stroke-width="1.5"/>
    <line y1="-0.75" x2="24.7577" y2="-0.75" transform="matrix(0.686589 0.727046 -0.686589 0.727046 1 2)" stroke="black" stroke-width="1.5"/>
  </svg>
</svg>
